flaticon/pins-and-locations/pin-16.svg

<svg xmlns="http://www.w3.org/2000/svg" width="32" height="32" viewBox="0 0 24 24">
    <path d="M 18.398438 6.398438 C 18.398438 2.878906 15.519531 0 12 0 C 8.480469 0 5.601562 2.878906 5.601562 6.398438 C 5.601562 9.242188 7.480469 11.667969 10.058594 12.496094 L 10.800781 22.839844 C 10.839844 23.519531 11.359375 24 12 24 C 12.640625 24 13.160156 23.519531 13.199219 22.839844 L 13.984375 12.484375 C 16.539062 11.640625 18.398438 9.226562 18.398438 6.398438 Z M 12.398438 22.761719 C 12.398438 23 12.238281 23.199219 12 23.199219 C 11.761719 23.199219 11.601562 22.960938 11.601562 22.761719 L 10.882812 12.703125 C 11.246094 12.765625 11.617188 12.800781 12 12.800781 C 12.007812 12.800781 12.015625 12.800781 12.023438 12.800781 C 12.167969 12.800781 12.308594 12.796875 12.449219 12.785156 C 12.675781 12.769531 12.898438 12.742188 13.117188 12.703125 Z M 12 12 C 8.921875 12 6.398438 9.480469 6.398438 6.398438 C 6.398438 3.320312 8.921875 0.800781 12 0.800781 C 15.078125 0.800781 17.601562 3.320312 17.601562 6.398438 C 17.601562 9.480469 15.078125 12 12 12 Z M 12 12"/>
    <path d="M14.800781 6.398438C14.558594 6.398438 14.398438 6.558594 14.398438 6.800781 14.398438 7.480469 13.878906 8 13.199219 8L10.160156 8 10.679688 7.480469C10.839844 7.320312 10.839844 7.078125 10.679688 6.921875 10.519531 6.761719 10.28125 6.761719 10.121094 6.921875L8.988281 8.050781C8.871094 8.117188 8.800781 8.242188 8.800781 8.398438 8.800781 8.558594 8.871094 8.683594 8.988281 8.75L10.121094 9.878906C10.199219 9.960938 10.28125 10 10.398438 10 10.519531 10 10.601562 9.960938 10.679688 9.878906 10.839844 9.71875 10.839844 9.480469 10.679688 9.320312L10.160156 8.800781 13.199219 8.800781C14.320312 8.800781 15.199219 7.921875 15.199219 6.800781 15.199219 6.558594 15.039062 6.398438 14.800781 6.398438zM15.199219 4.398438C15.199219 4.242188 15.128906 4.117188 15.011719 4.050781L13.878906 2.921875C13.71875 2.761719 13.480469 2.761719 13.320312 2.921875 13.160156 3.078125 13.160156 3.320312 13.320312 3.480469L13.839844 4 10.800781 4C9.679688 4 8.800781 4.878906 8.800781 6 8.800781 6.238281 8.960938 6.398438 9.199219 6.398438 9.441406 6.398438 9.601562 6.238281 9.601562 6 9.601562 5.320312 10.121094 4.800781 10.800781 4.800781L13.839844 4.800781 13.320312 5.320312C13.160156 5.480469 13.160156 5.71875 13.320312 5.878906 13.398438 5.960938 13.480469 6 13.601562 6 13.71875 6 13.800781 5.960938 13.878906 5.878906L15.011719 4.75C15.128906 4.683594 15.199219 4.558594 15.199219 4.398438zM15.199219 4.398438"/>
</svg>

<svg xmlns="http://www.w3.org/2000/svg" width="32" height="32" viewBox="0 0 24 24">
    <path d="M18.398 6.398C18.398 2.878 15.52 0 12 0 8.48 0 5.602 2.879 5.602 6.398c0 2.844 1.878 5.27 4.457 6.098L10.8 22.84c.039.68.558 1.16 1.199 1.16.64 0 1.16-.48 1.2-1.16l.784-10.356c2.555-.843 4.414-3.257 4.414-6.086zm-6 16.364c0 .238-.16.437-.398.437-.238 0-.398-.238-.398-.437l-.72-10.059c.364.063.735.098 1.118.098h.023a6.239 6.239 0 0 0 1.094-.098zM12 12c-3.078 0-5.602-2.52-5.602-5.602C6.398 3.32 8.922.801 12 .801c3.078 0 5.602 2.52 5.602 5.597C17.602 9.48 15.078 12 12 12zm0 0"/>
    <path d="M14.8 6.398c-.241 0-.402.16-.402.403 0 .68-.52 1.199-1.199 1.199H10.16l.52-.52a.385.385 0 0 0 0-.558.385.385 0 0 0-.559 0L8.988 8.05a.383.383 0 0 0-.187.347c0 .16.07.286.187.352l1.133 1.129c.078.082.16.121.277.121.122 0 .204-.04.282-.121a.385.385 0 0 0 0-.559l-.52-.52h3.04c1.12 0 2-.878 2-2 0-.241-.16-.402-.4-.402zm0 0M15.2 4.398a.383.383 0 0 0-.188-.347l-1.133-1.13a.385.385 0 0 0-.559 0 .385.385 0 0 0 0 .56l.52.519H10.8c-1.12 0-2 .879-2 2 0 .238.16.398.4.398.241 0 .402-.16.402-.398 0-.68.52-1.2 1.199-1.2h3.039l-.52.52a.385.385 0 0 0 0 .559c.078.082.16.121.282.121.117 0 .199-.04.277-.121l1.133-1.129c.117-.066.187-.191.187-.352zm0 0"/>
</svg>
